X: 630
T: Acushla
R: polka
M: 2/4
K: Dmajor
b2 a2|fafd|f2 e2|dfdB|cdef|defa|c'2 b2|a3 z|
b2 a2|fafd|f2 e2|dfdB|cdde|fac'b|edef|d3||
fe|dBBB|B2 fe|dBBB|B2 fg|
abag|fdde|fgfe|d2 Bc|defg|abaf|beef|e2 fg|
abag|fdde|fgfe|d2 ff|efge|fagf|gabc'|a3||
de|:fad'b|afed|e f2 B|e f2 B|efaf|afef|a b2 c'|bade|
fad'b|afed|e f2 B|e f2 B|efaf|afef|da/a/ aa|1 a2 de:|2 e2 e2||
b2 b2|a2 f2|e2 c2|B2 A2|c2 B2|A2 B2|A2 aa|a2 a2||

